X: 1
T: the Rights of Man   [Dm]
R: strathspey
N: Originally hornpipe
O: Ireland, Scotland, England
Z: 2014 John Chambers <jc:trillian.mit.edu>
S: handwritten MS by John Chambers (1970s)
M: 4/4
L: 1/8
K: Dm
F>G |\
"Dm"A>B G<A "A7"F>G E<F | "Dm"D>E F<G A2 d>e |\
f>e d>c d>c A<c | "Gm"B>A G<F "C"G2 F>G |\
"Dm"A>B G<A "A7"F<G E>F |
"Dm"D>E F<G A2 d>e |\
"Dm"f>e d>c "A7"A>f e<f | "Dm"d>A F<A D2 :: f>g |\
"Dm"a2 a>f d>e f>g | a>g a<f d>f e>d |
"C"c2 c>=B c>d e<f | g>e c<e g2 f>e |\
"Dm"d>c d>e f>e f>g | (3agf (3gfe f>e d<e |\
"Dm"f>e d<c "A7"A>f e>f | "Dm"d>A F<A D2 :|
